icons/op-view-split-24.svg

<svg width="24" height="24" viewBox="0 0 24 24" fill="none" xmlns="http://www.w3.org/2000/svg">
<path d="M4 6H10V8.18182H4V6ZM4 9.27273H10V11.4545H4V9.27273ZM4 12.5455H10V14.7273H4V12.5455ZM4 15.8182H10V18H4V15.8182ZM11 6H20V18H11V6Z" fill="black"/>
</svg>

<svg xmlns="http://www.w3.org/2000/svg" width="24" height="24" viewBox="0 0 24 24"><path d="M4 6h6v2.182H4V6Zm0 3.273h6v2.181H4V9.273Zm0 3.273h6v2.181H4v-2.181Zm0 3.272h6V18H4v-2.182ZM11 6h9v12h-9V6Z"/></svg>
